X: 1
T: Bellangare Races, The
M: 6/8
L: 1/8
R: jig
K: Gmaj
~B3 GBd|ece gfe|ded dcB|dcB Adc|
~B3 GBd|ece gfe|dge dcA|1 AGF G2 A:|2 AGF GBc||
def ~g3|dge dBG|~c3 BdB|BAG ABA|
GAB ABc|def ~g3|dge dcA|1AGF GBc:|2 AGF G2 A||
